X:1
T:Princethorpe, 11.11.11.11
T:William Pitts, 1871
T:Princethorpe, 11.11.11.11
T:Public Domain
C:William Pitts, 1871
Z:Public Domain
%%score ( 1 2 ) ( 3 4 )
L:1/8
M:4/4
K:F
V:1 treble 
V:2 treble 
V:3 bass 
V:4 bass 
V:1
 [FA]2 F2 [EB]2 [EG]2 | F2 z B [FA]4 | [FG]2 (AB) [FA]2 [EG]2 | F8 | [FA]2 F2 [EB]2 [EG]2 | %5
 ([Fc]3 [Ed]) [Fc]4 | (A=B) [Gc]2 [Fc]2 [FB]2 | [Ec]8 | [Ec]2 [EG]2 (GA) [EB]2 | (F2 z G) F4 x | %10
 [Fd]2 [Ac]2 [GB]2 [^FA]2 | (z4 E4) | [FA]2 F2 [EB]2 [EG]2 | (F2 z B) [FA]4 | %14
 [FG]2 (AB) [FA]2 [EG]2 | F8 |] %16
V:2
 x2 F2 x4 | c3 E2 x3 | x2 F2 x4 | F8 | x2 F2 x4 | x8 | F2 x6 | x8 | x4 E2 x2 | A3 (E2 F4) | x8 | %11
 G8 | x2 F2 x4 | c3 E2 x3 | x2 F2 x4 | F8 |] %16
V:3
 [F,C]2 [A,C]2 [G,C]2 [B,C]2 | (A,2 G,2) [F,C]4 | [B,,D]2 ([A,,C][G,,B,]) [C,C]2 [C,B,]2 | %3
 [F,A,]8 | [F,C]2 [A,C]2 [G,C]2 [B,C]2 | (A,3 B,) [A,C]4 | [F,C]2 [E,G,]2 [D,A,]2 [G,,G,]2 | %7
 [C,G,]8 | [C,C]2 [B,C]2 (B,A,) [G,C]2 | ([F,C]2 [C,B,]2) [D,A,]4 x | %10
 [B,,B,]2 [C,_E]2 [D,D]2 [D,C]2 | (G,,4 C,4) | [F,A,]2 [A,C]2 [G,C]2 [B,C]2 | (A,2 G,2) [F,C]4 | %14
 [B,,D]2 ([A,,C][G,,B,]) [C,C]2 [C,B,]2 | [F,,F,A,]8 |] %16
V:4
 x8 | C4 x4 | x8 | x8 | x8 | C4 x4 | x8 | x8 | x4 D2 x2 | x9 | x8 | B,8 | x8 | C4 x4 | x8 | x8 |] %16

